X: 10031
M: 3/8
L: 1/16
K: G
dc | B2B2A2 | G2 zgfe | d2d2c2 | B4dc | B2B2A2 | G2g4 | g2f2e2 | d2 |]
fg | a2d2d2 | b2d2d2 | d2c'2b2 | b2a2f2 | g2f2e2 | d2c'2b2 | {b/}a2g2f2 | g4 |]
d2B2G2 | g2f2e2 | e2d2d2 | d4Bd | d2c2c2 | c2A2F2 | G2g2g2 | g4 |]


